!!!OTL: Das Schwabentoechterlein.
!!!OTL-incipit:Es hat ein Schwab' ein Toechterlein,
!!!ARE: Europa, Mitteleuropa, Deutschland (), Sachsen - Anhalt
!!!YOR: 4, S. 52
!!    1894 gedruckt in Leipzig
!!!SCT: Q0073N
!!!TXL: @@DE
!!!YEM: Copyright 1995, estate of Helmut Schaffrath.
**kern	**text
*ICvox	*
*M6/8	*
*k[f#]	*
*G:	*
!LO:TX:a:t=Sachſen-Anhalt	!
{8d	Es
=1	=1
4d	hat
8g	ein
4g	Schwab'
8g	ein
=2	=2
4g	.
8d	Töchterlein,
4d}	.
{8d	die
=3	=3
4e	woll-
8f#	-te
4g	nicht
8e	mehr
=4	=4
(4e	die-
8d)	-nen,
4d}	die
{8d	wollte
=5	=5
4d	.
8cc	Hut
4cc	und
8d	Man-
=6	=6
4d	.
8b	-tel
4b}	hab'n
{8g	und
=7	=7
4f#	ein
8g	Paar
4a	Schuh
8f#	mit
=8	=8
(4a	Schnü-
8g)	.
8g	-ren.
8r}	.
==	==
!!!AGN: Ballade, Weglaufen, Schwangerschaft, Rueckkehr
!!!ONB: ESAC (Essen Associative Code) Database: BALLADE
!!!AMT: compound duple
!!!AIN: vox
!!!EED: Helmut Schaffrath
!!!EEV: 1.0
!!!source: Deutsche Volkslieder mit ihren Melodien. Herausgegeben vom Deutschen Volksliedarchiv. Vierter Band. Berlin 1959.
!!!page: 52
!!!ENC: Anna Maria Matuszewska
!!!EEV: 2025/02/21
*-	*-
